apps/scalable/kmag.svg

<svg xmlns="http://www.w3.org/2000/svg" style="isolation:isolate" width="256" height="256"><defs><filter id="a" width="270.648" height="254.338" x="-7.32" y="2.95" filterUnits="userSpaceOnUse"><feGaussianBlur xmlns="http://www.w3.org/2000/svg" in="SourceGraphic" stdDeviation="4.294"/><feOffset xmlns="http://www.w3.org/2000/svg" dy="4" result="pf_100_offsetBlur"/><feFlood xmlns="http://www.w3.org/2000/svg" flood-opacity=".4"/><feComposite xmlns="http://www.w3.org/2000/svg" in2="pf_100_offsetBlur" operator="in" result="pf_100_dropShadow"/><feBlend xmlns="http://www.w3.org/2000/svg" in="SourceGraphic" in2="pf_100_dropShadow"/></filter></defs><g filter="url(#a)"><linearGradient id="b" x1=".978" x2="-.023" y1="1.003" y2=".022" gradientTransform="matrix(244.648 0 0 228.338 5.676 11.947)" gradientUnits="userSpaceOnUse"><stop offset="0%" stop-color="#4ce0c6"/><stop offset="100%" stop-color="#3b85b5"/></linearGradient><path fill="url(#b)" d="M165.685 11.947c74.055 0 84.639 10.557 84.639 84.544v59.251c0 73.986-10.584 84.543-84.639 84.543h-75.37c-74.055 0-84.639-10.557-84.639-84.543V96.491c0-73.987 10.584-84.544 84.639-84.544h75.37z"/></g><path fill="#FFAD36" d="M94.75 147.25C188.005 63.342 233.793 21.868 232.084 23.299c15.062 11.149 18.24 32.646 18.24 73.192v59.251c0 32.186-2.003 52.368-10.363 64.899.109.876-48.274-23.401-145.211-73.391z"/><path fill="#4D5C5C" d="M95 147.25c91.908 47.482 140.201 72.011 144.848 73.56-10.894 16.129-32.469 19.475-74.163 19.475h-75.37c-43.363 0-64.963-3.619-75.42-21.474 1.893-2.229 28.604-26.073 80.105-71.561z"/><path fill="#FFF" d="M15.5 53v26.786h5.357V58.357h21.429V53H15.5zm198.214 0v5.357h21.429v21.429h5.357V53h-26.786zm-96.428 32.143c-17.807 0-32.143 14.336-32.143 32.143 0 17.807 14.336 32.143 32.143 32.143a32.014 32.014 0 0 0 20.759-7.597l29.025 29.025 3.787-3.787-29.025-29.025a32.02 32.02 0 0 0 7.597-20.759c0-17.807-14.336-32.143-32.143-32.143m0 5.357a26.726 26.726 0 0 1 26.785 26.786 26.726 26.726 0 0 1-26.785 26.785A26.726 26.726 0 0 1 90.5 117.286 26.727 26.727 0 0 1 117.286 90.5M15.5 176.214V203h26.786v-5.357H20.857v-21.429H15.5zm219.643 0v21.429h-21.429V203H240.5v-26.786h-5.357z"/><g opacity=".4"><linearGradient id="c" x1=".517" x2=".517" y2="1"><stop offset="0%" stop-color="#fff"/><stop offset="12.5%" stop-opacity=".098" stop-color="#fff"/><stop offset="92.5%" stop-opacity=".098"/><stop offset="100%" stop-opacity=".498"/></linearGradient><path fill="none" stroke="url(#c)" stroke-linecap="round" stroke-linejoin="round" stroke-width="4.077" d="M165.685 11.947c74.055 0 84.639 10.557 84.639 84.544v59.251c0 73.986-10.584 84.543-84.639 84.543h-75.37c-74.055 0-84.639-10.557-84.639-84.543V96.491c0-73.987 10.584-84.544 84.639-84.544h75.37z" vector-effect="non-scaling-stroke"/></g></svg>

<svg xmlns="http://www.w3.org/2000/svg" style="isolation:isolate" width="256" height="256" viewBox="0 0 256 256">
 <defs>
  <filter id="6t0kgwtcDL7UIg2x5GJPWddqC39tHTNO" width="270.648" height="254.338" x="-7.32" y="2.95" filterUnits="userSpaceOnUse">
   <feGaussianBlur xmlns="http://www.w3.org/2000/svg" in="SourceGraphic" stdDeviation="4.294"/>
   <feOffset xmlns="http://www.w3.org/2000/svg" dx="0" dy="4" result="pf_100_offsetBlur"/>
   <feFlood xmlns="http://www.w3.org/2000/svg" flood-opacity=".4"/>
   <feComposite xmlns="http://www.w3.org/2000/svg" in2="pf_100_offsetBlur" operator="in" result="pf_100_dropShadow"/>
   <feBlend xmlns="http://www.w3.org/2000/svg" in="SourceGraphic" in2="pf_100_dropShadow" mode="normal"/>
  </filter>
 </defs>
 <g filter="url(#6t0kgwtcDL7UIg2x5GJPWddqC39tHTNO)">
  <linearGradient id="_lgradient_212" x1=".978" x2="-.023" y1="1.003" y2=".022" gradientTransform="matrix(244.648,0,0,228.338,5.676,11.947)" gradientUnits="userSpaceOnUse">
   <stop offset="0%" style="stop-color:rgb(76,224,198)"/>
   <stop offset="100%" style="stop-color:rgb(59,133,181)"/>
  </linearGradient>
  <path fill="url(#_lgradient_212)" d="M 165.685 11.947 C 239.74 11.947 250.324 22.504 250.324 96.491 L 250.324 155.742 C 250.324 229.728 239.74 240.285 165.685 240.285 L 90.315 240.285 C 16.26 240.285 5.676 229.728 5.676 155.742 L 5.676 96.491 C 5.676 22.504 16.26 11.947 90.315 11.947 L 165.685 11.947 Z"/>
 </g>
 <path fill="#FFAD36" d="M 94.75 147.25 C 188.005 63.342 233.793 21.868 232.084 23.299 C 247.146 34.448 250.324 55.945 250.324 96.491 L 250.324 155.742 C 250.324 187.928 248.321 208.11 239.961 220.641 C 240.07 221.517 191.687 197.24 94.75 147.25 Z"/>
 <path fill="#4D5C5C" d="M 95 147.25 C 186.908 194.732 235.201 219.261 239.848 220.81 C 228.954 236.939 207.379 240.285 165.685 240.285 L 90.315 240.285 C 46.952 240.285 25.352 236.666 14.895 218.811 C 16.788 216.582 43.499 192.738 95 147.25 Z"/>
 <path fill="#FFFFFF" d="M 15.5 53 L 15.5 79.786 L 20.857 79.786 L 20.857 58.357 L 42.286 58.357 L 42.286 53 L 15.5 53 Z M 213.714 53 L 213.714 58.357 L 235.143 58.357 L 235.143 79.786 L 240.5 79.786 L 240.5 53 L 213.714 53 Z M 117.286 85.143 C 99.479 85.143 85.143 99.479 85.143 117.286 C 85.143 135.093 99.479 149.429 117.286 149.429 C 125.22 149.429 132.452 146.563 138.045 141.832 L 167.07 170.857 L 170.857 167.07 L 141.832 138.045 C 146.562 132.452 149.429 125.22 149.429 117.286 C 149.429 99.479 135.093 85.143 117.286 85.143 M 117.286 90.5 C 132.125 90.5 144.071 102.446 144.071 117.286 C 144.071 132.125 132.125 144.071 117.286 144.071 C 102.446 144.071 90.5 132.125 90.5 117.286 C 90.5 102.446 102.446 90.5 117.286 90.5 M 15.5 176.214 L 15.5 203 L 42.286 203 L 42.286 197.643 L 20.857 197.643 L 20.857 176.214 L 15.5 176.214 Z M 235.143 176.214 L 235.143 197.643 L 213.714 197.643 L 213.714 203 L 240.5 203 L 240.5 176.214 L 235.143 176.214 Z"/>
 <g opacity=".4">
  <linearGradient id="_lgradient_213" x1=".517" x2=".517" y1="0" y2="1">
   <stop offset="0%" style="stop-color:rgb(255,255,255)"/>
   <stop offset="12.5%" stop-opacity=".098" style="stop-color:rgb(255,255,255)"/>
   <stop offset="92.5%" stop-opacity=".098" style="stop-color:rgb(0,0,0)"/>
   <stop offset="100%" stop-opacity=".498" style="stop-color:rgb(0,0,0)"/>
  </linearGradient>
  <path fill="none" stroke="url(#_lgradient_213)" stroke-linecap="round" stroke-linejoin="round" stroke-width="4.077" d="M 165.685 11.947 C 239.74 11.947 250.324 22.504 250.324 96.491 L 250.324 155.742 C 250.324 229.728 239.74 240.285 165.685 240.285 L 90.315 240.285 C 16.26 240.285 5.676 229.728 5.676 155.742 L 5.676 96.491 C 5.676 22.504 16.26 11.947 90.315 11.947 L 165.685 11.947 Z" vector-effect="non-scaling-stroke"/>
 </g>
</svg>
